assets/features/channel/other/nayapay.svg

<svg width="80" height="80" viewBox="0 0 80 80" fill="none" xmlns="http://www.w3.org/2000/svg">
<rect width="80" height="80" rx="8" fill="#FF5018"/>
<path d="M59.9228 38.0584L46.1894 55.4632C46.1224 55.549 46.0169 55.5999 45.9084 55.5999H39.8483C39.6502 55.5999 39.4905 55.441 39.4905 55.2436V43.5123C39.4905 43.172 39.0561 43.0258 38.8484 43.2961L29.5619 55.4601C29.4948 55.549 29.3894 55.5999 29.2775 55.5999H23.2175C23.0194 55.5999 22.8597 55.441 22.8597 55.2436V40.3958C22.8597 40.1987 22.7 40.0396 22.5019 40.0396H20.3584C20.0613 40.0396 19.892 39.6962 20.0773 39.464L31.7853 24.5366C31.8524 24.4508 31.9578 24.3999 32.0664 24.3999H37.0467C37.2447 24.3999 37.4045 24.5589 37.4045 24.7561V37.5305C37.4045 37.8708 37.8357 38.0171 38.0466 37.75L48.4161 24.5366C48.4831 24.4508 48.5886 24.3999 48.6971 24.3999H53.6774C53.8756 24.3999 54.0353 24.5589 54.0353 24.7561V37.168C54.0353 37.3652 54.1982 37.5274 54.3962 37.5242L59.6385 37.4828C59.9388 37.4828 60.1081 37.8263 59.9228 38.0584Z" fill="white"/>
</svg>

<svg xmlns="http://www.w3.org/2000/svg" width="80" height="80" fill="none" viewBox="0 0 80 80"><rect width="80" height="80" fill="#ff5018" rx="8"/><path fill="#fff" d="M59.923 38.058 46.189 55.463a.36.36 0 0 1-.28.137h-6.06a.356.356 0 0 1-.358-.356V43.512c0-.34-.435-.486-.643-.216L29.562 55.46a.36.36 0 0 1-.285.14h-6.06a.356.356 0 0 1-.357-.356V40.396a.356.356 0 0 0-.358-.356h-2.144a.356.356 0 0 1-.28-.576l11.707-14.927a.36.36 0 0 1 .281-.137h4.98c.199 0 .358.159.358.356v12.775c0 .34.432.486.643.219l10.37-13.213a.36.36 0 0 1 .28-.137h4.98c.199 0 .358.159.358.356v12.412c0 .197.163.36.361.356l5.243-.041c.3 0 .47.343.284.575"/></svg>
